public/assets/img/save4.svg

<svg width="54" height="54" viewBox="0 0 54 54" fill="none" xmlns="http://www.w3.org/2000/svg">
<path d="M53.6911 17.6058L48.3047 12.2193V1.05469C48.3047 0.472184 47.8324 0 47.25 0H31.7121C31.1297 0 30.6574 0.472184 30.6574 1.05469C30.6574 1.63719 31.1297 2.10938 31.7121 2.10938H46.1953V23.6099L26.9525 42.8528L7.80469 23.7049V2.10938H22.2199C22.8023 2.10938 23.2746 1.63719 23.2746 1.05469C23.2746 0.472184 22.8023 0 22.2199 0H6.75C6.1676 0 5.69531 0.472184 5.69531 1.05469V12.2193L0.308918 17.6058C0.111164 17.8035 0 18.0719 0 18.3516V48.7266C0 51.6343 2.36566 54 5.27344 54H48.7266C51.6343 54 54 51.6343 54 48.7266V18.3516C54 18.0719 53.8888 17.8035 53.6911 17.6058ZM51.8906 48.7266C51.8906 49.2144 51.7795 49.6767 51.5814 50.0899L37.1401 35.6484L51.8906 20.8979V48.7266ZM48.3047 15.2025L51.4538 18.3516L48.3047 21.5005V15.2025ZM2.41861 50.0899C2.22054 49.6767 2.10938 49.2145 2.10938 48.7266V20.9927L16.8125 35.6959L2.41861 50.0899ZM5.69531 21.5955L2.49877 18.399L5.69531 15.2025V21.5955ZM5.27344 51.8906C4.78564 51.8906 4.32327 51.7795 3.91025 51.5814L18.3041 37.1874L26.2068 45.0901C26.4046 45.2879 26.6728 45.399 26.9525 45.399C27.2322 45.399 27.5005 45.2879 27.6983 45.0901L35.6484 37.1401L50.0899 51.5815C49.6767 51.7796 49.2145 51.8907 48.7266 51.8907H5.27344V51.8906Z" fill="#90A1AE"/>
<path d="M26.9662 2.10938C27.2436 2.10938 27.5157 1.99652 27.7119 1.80035C27.908 1.60418 28.0209 1.33207 28.0209 1.05469C28.0209 0.777305 27.9081 0.505195 27.7119 0.309023C27.5157 0.112852 27.2436 0 26.9662 0C26.6878 0 26.4168 0.112852 26.2206 0.309023C26.0245 0.505195 25.9116 0.777305 25.9116 1.05469C25.9116 1.33207 26.0244 1.60418 26.2206 1.80035C26.4168 1.99652 26.6878 2.10938 26.9662 2.10938Z" fill="#90A1AE"/>
<path d="M17.0231 12.7804C15.5922 15.3803 15.2158 18.3776 15.9634 21.2201C16.611 23.6824 18.0091 25.8065 20.0069 27.3629C21.9303 28.8615 24.3263 29.7238 26.7531 29.7909C26.7631 29.7912 26.7729 29.7913 26.7827 29.7913C27.3517 29.7913 27.8207 29.3381 27.8365 28.7658C27.8525 28.1836 27.3936 27.6984 26.8113 27.6824C22.6789 27.5682 19.0571 24.6901 18.0033 20.6837C16.7342 15.8582 19.4671 10.8918 24.225 9.37712C26.6388 8.60868 29.2011 8.83501 31.44 10.0142C33.6745 11.1909 35.3081 13.1684 36.0417 15.5837C36.5091 17.3487 36.3575 18.9848 35.5361 21.0503C35.3019 21.6391 34.5747 23.0089 32.8829 23.0089C32.6154 23.0089 32.3446 22.8848 32.1205 22.6596C31.8199 22.3576 31.6489 21.9311 31.6511 21.4843V12.7646C31.6511 12.1821 31.1788 11.7099 30.5964 11.7099C30.0139 11.7099 29.5417 12.1821 29.5417 12.7646V13.1005C28.7184 12.4142 27.6958 12.0224 26.5501 12.0224C23.8864 12.0224 21.1311 14.3316 21.1311 18.196C21.1311 19.8992 21.6709 21.4944 22.651 22.6877C23.6445 23.8975 25.0253 24.5913 26.4391 24.5913C27.7643 24.5913 28.958 24.0062 29.8669 23.0306C30.0497 23.4451 30.3053 23.8258 30.6253 24.1474C31.2482 24.7733 32.0499 25.1181 32.8829 25.1181C35.3201 25.1181 36.864 23.4194 37.4961 21.8297C38.4876 19.3367 38.6663 17.2376 38.0754 15.0234C38.0724 15.0124 38.0693 15.0015 38.066 14.9906C37.1704 12.0227 35.1662 9.59249 32.4229 8.14778C29.6802 6.70328 26.5415 6.426 23.5851 7.3671C20.7841 8.25884 18.4537 10.1812 17.0231 12.7804ZM26.4392 22.4819C24.6755 22.4819 23.2406 20.5592 23.2406 18.1959C23.2406 15.6519 24.9233 14.1317 26.5502 14.1317C28.303 14.1317 29.5271 15.7898 29.5271 18.1639C29.527 20.5449 28.1418 22.4819 26.4392 22.4819Z" fill="#90A1AE"/>
</svg>

<svg width="54" height="54" fill="none" xmlns="http://www.w3.org/2000/svg"><path d="m53.691 17.606-5.386-5.387V1.055C48.305.472 47.832 0 47.25 0H31.712a1.055 1.055 0 0 0 0 2.11h14.483v21.5L26.953 42.853 7.805 23.705V2.109H22.22a1.055 1.055 0 0 0 0-2.109H6.75c-.582 0-1.055.472-1.055 1.055v11.164L.31 17.606a1.055 1.055 0 0 0-.309.746v30.375A5.28 5.28 0 0 0 5.273 54h43.454A5.28 5.28 0 0 0 54 48.727V18.352c0-.28-.111-.549-.309-.746Zm-1.8 31.12c0 .488-.111.95-.31 1.364l-14.44-14.442 14.75-14.75v27.829Zm-3.586-33.523 3.149 3.149-3.15 3.148v-6.297ZM2.419 50.09a3.145 3.145 0 0 1-.31-1.363V20.993l14.704 14.703L2.418 50.09Zm3.276-28.495L2.5 18.4l3.196-3.197v6.394Zm-.422 30.296c-.487 0-.95-.111-1.363-.31l14.394-14.394 7.903 7.903a1.055 1.055 0 0 0 1.491 0l7.95-7.95L50.09 51.581c-.413.199-.876.31-1.363.31H5.273Z" fill="#90A1AE"/><path d="M26.966 2.11c.278 0 .55-.113.746-.31.196-.196.309-.468.309-.745 0-.278-.113-.55-.31-.746A1.063 1.063 0 0 0 26.967 0c-.278 0-.55.113-.745.309a1.063 1.063 0 0 0-.31.746 1.06 1.06 0 0 0 1.055 1.055ZM17.023 12.78a11.414 11.414 0 0 0-1.06 8.44 11.393 11.393 0 0 0 4.044 6.143 11.577 11.577 0 0 0 6.776 2.428 1.055 1.055 0 0 0 .028-2.109c-4.132-.114-7.754-2.992-8.808-6.998a9.363 9.363 0 0 1 6.222-11.307 9.31 9.31 0 0 1 7.215.637 9.306 9.306 0 0 1 4.602 5.57c.467 1.765.316 3.4-.506 5.466-.234.59-.961 1.959-2.653 1.959-.268 0-.538-.124-.763-.35a1.657 1.657 0 0 1-.469-1.175v-8.72a1.055 1.055 0 0 0-2.11 0v.337a4.605 4.605 0 0 0-2.99-1.079c-2.665 0-5.42 2.31-5.42 6.174 0 1.703.54 3.298 1.52 4.492.994 1.21 2.374 1.903 3.788 1.903 1.325 0 2.519-.585 3.428-1.56.183.414.438.795.758 1.116.623.626 1.425.971 2.258.971 2.437 0 3.981-1.699 4.613-3.288.992-2.493 1.17-4.592.58-6.807a11.4 11.4 0 0 0-5.653-6.876 11.404 11.404 0 0 0-8.838-.78 11.429 11.429 0 0 0-6.562 5.413Zm9.416 9.702c-1.764 0-3.198-1.923-3.198-4.286 0-2.544 1.682-4.064 3.31-4.064 1.752 0 2.976 1.658 2.976 4.032 0 2.38-1.385 4.318-3.088 4.318Z" fill="#90A1AE"/></svg>
